X: 627
T: Cotillon d'Avila LeBlanc
T: Surf and Turf bridge tune
S: la Bottine Souriante
R: reel
S: vonnieestes <vonnieestes:hotmail.com> tradtunes 2008-10-9
F: http://groups.yahoo.com/group/tradtunes/files/Cotillon%20d%27Avila%20LeBlanc.jpg
Z: 2008 John Chambers <jc:trillian.mit.edu>
M: C|
L: 1/8
K: D
|: AG | FGA2 d3B  | BAGB A2AG | FGA2 d3f  | fedf e2 :|
|: gf | eABA eAef | gfed Bcgf | eABA edef | gfed B2 :|

%%sep 1 1 500

